common/resources/fonts/svg/stories-icon.svg

<?xml version="1.0" encoding="UTF-8" standalone="no"?>
<svg width="1024px" height="1024px" viewBox="0 0 1024 1024" version="1.1" xmlns="http://www.w3.org/2000/svg" xmlns:xlink="http://www.w3.org/1999/xlink">
    <!-- Generator: Sketch 3.7.1 (28215) - http://www.bohemiancoding.com/sketch -->
    <title>stories-icon</title>
    <desc>Created with Sketch.</desc>
    <defs></defs>
    <g id="Page-1" stroke="none" stroke-width="1" fill="none" fill-rule="evenodd">
        <g id="stories-icon" fill="#000000">
            <path d="M229.253633,568.426367 L794.747266,568.426367 L794.747266,624.852734 L229.253633,624.852734 L229.253633,568.426367 L229.253633,568.426367 Z M229.253633,681.586367 L794.747266,681.586367 L794.747266,738.012734 L229.253633,738.012734 L229.253633,681.586367 L229.253633,681.586367 Z M229.253633,455.573633 L512,455.573633 L512,512 L229.253633,512 L229.253633,455.573633 L229.253633,455.573633 Z M229.253633,342.413633 L512,342.413633 L512,398.84 L229.253633,398.84 L229.253633,342.413633 L229.253633,342.413633 Z M229.253633,229.253633 L512,229.253633 L512,285.68 L229.253633,285.68 L229.253633,229.253633 L229.253633,229.253633 Z M59.6663672,59.6663672 L59.6663672,964.332734 L964.332734,964.332734 L964.332734,59.6663672 L59.6663672,59.6663672 L59.6663672,59.6663672 Z M907.906367,907.906367 L116.092734,907.906367 L116.092734,116.092734 L907.599102,116.092734 L907.599102,907.906367 L907.906367,907.906367 Z M568.426367,229.253633 L794.44,229.253633 L794.44,512 L568.426367,512 L568.426367,229.253633 L568.426367,229.253633 Z" id="Shape"></path>
        </g>
    </g>
</svg>

<svg width="1024" height="1024" viewBox="0 0 1024 1024">
    <path d="M229.254 568.426h565.493v56.427H229.254v-56.427zm0 113.16h565.493v56.427H229.254v-56.427zm0-226.012H512V512H229.254v-56.426zm0-113.16H512v56.426H229.254v-56.426zm0-113.16H512v56.426H229.254v-56.426zM59.666 59.666v904.667h904.667V59.666H59.666zm848.24 848.24H116.093V116.093h791.506v791.813h.307zm-339.48-678.652H794.44V512H568.426V229.254z" fill-rule="evenodd"/>
</svg>
